src/sources/forus-platform/resources/_platform-common/assets/img/features/icons/sm/bi_tools.svg

<svg width="37" height="37" viewBox="0 0 37 37" fill="none" xmlns="http://www.w3.org/2000/svg">
    <g clip-path="url(#clip0_735_29373)">
        <path d="M0.0261319 -0.359394C-4.194 3.95239 -5.6677 14.3326 -5.26578 22.1577C-5.0425 26.5379 -4.0377 34.4315 0.160104 37.8763C3.86668 40.9562 11.3245 42.4391 18.6706 42.4391C26.0168 42.4391 33.4746 40.9106 37.1812 37.8763C41.379 34.4315 42.3838 26.4695 42.6071 22.1577C43.009 14.3326 41.5353 3.90676 37.3152 -0.359394C30.5272 -7.29475 6.81408 -7.29475 0.0261319 -0.359394Z" fill="#2CC678"/>
        <g clip-path="url(#clip1_735_29373)">
            <path d="M3.5196 16.4888C3.45376 17.0187 3.86699 17.4865 4.40095 17.4865H8.01433C8.44805 17.4865 8.81835 17.1732 8.89018 16.7454C9.5856 12.6039 12.8353 9.35416 16.9768 8.65879C17.4046 8.58697 17.7179 8.21667 17.7179 7.78289V4.16951C17.7179 3.63555 17.2501 3.22232 16.7202 3.28816C13.3884 3.70222 10.2409 5.24282 7.85754 7.6261C5.47426 10.0094 3.93366 13.157 3.5196 16.4888Z" fill="white" fill-opacity="0.65"/>
            <path d="M24.3297 26.4136C22.644 27.6173 20.6673 28.2534 18.6135 28.2534C13.7807 28.2534 9.69147 24.7902 8.89024 20.0185C8.81841 19.5908 8.44811 19.2775 8.01439 19.2775H4.40095C3.86699 19.2775 3.45376 19.7452 3.5196 20.2751V20.2752C4.46348 27.8699 10.9524 33.5971 18.6135 33.5971C22.0264 33.5971 25.254 32.4893 27.9473 30.3935C28.3689 30.0655 28.4076 29.4423 28.0299 29.0646L25.4738 26.5084C25.1668 26.2015 24.6829 26.1614 24.3297 26.4136Z" fill="white" fill-opacity="0.85"/>
            <path d="M20.2499 8.65879C25.0215 9.46003 28.4849 13.5492 28.4849 18.3821C28.4849 20.4359 27.8487 22.4125 26.6451 24.0982C26.3928 24.4515 26.4329 24.9354 26.7399 25.2423L29.2961 27.7985C29.6738 28.1763 30.297 28.1375 30.625 27.7159L30.6251 27.7159C32.7207 25.0226 33.8285 21.795 33.8285 18.3821C33.8285 10.721 28.1013 4.23203 20.5065 3.28816H20.5065C19.9766 3.22232 19.5088 3.63555 19.5088 4.16951V7.78289C19.5088 8.21667 19.8221 8.58697 20.2499 8.65879Z" fill="white" fill-opacity="0.5"/>
            <path d="M19.2049 12.2789H18.02C17.5295 12.2789 17.1318 12.6766 17.1318 13.1671V23.5288H20.0931V13.1671C20.0931 12.6766 19.6954 12.2789 19.2049 12.2789Z" fill="white"/>
            <path d="M21.8696 23.5289H23.9427C24.4332 23.5289 24.8309 23.1312 24.8309 22.6407V15.5355C24.8309 15.045 24.4332 14.6473 23.9427 14.6473H21.8696V23.5289Z" fill="white"/>
            <path d="M15.3557 17.0157H13.2849C12.7944 17.0157 12.3967 17.4134 12.3967 17.9039V22.6407C12.3967 23.1312 12.7944 23.5289 13.2849 23.5289H15.3557V17.0157Z" fill="white"/>
        </g>
    </g>
    <defs>
        <clipPath id="clip0_735_29373">
            <rect x="0.670654" y="0.439087" width="36" height="36" rx="12.6316" fill="white"/>
        </clipPath>
        <clipPath id="clip1_735_29373">
            <rect width="30.3158" height="30.3158" fill="white" transform="translate(3.5127 3.28125)"/>
        </clipPath>
    </defs>
</svg>

<svg width="37" height="37" fill="none" xmlns="http://www.w3.org/2000/svg"><g clip-path="url(#a)"><path d="M.026-.36c-4.22 4.312-5.694 14.693-5.292 22.518.223 4.38 1.228 12.273 5.426 15.718 3.707 3.08 11.165 4.563 18.51 4.563 7.347 0 14.805-1.528 18.511-4.563 4.198-3.444 5.203-11.406 5.426-15.718.402-7.825-1.072-18.251-5.292-22.517-6.788-6.936-30.5-6.936-37.289 0Z" fill="#2CC678"/><g clip-path="url(#b)" fill="#fff"><path d="M3.52 16.489a.888.888 0 0 0 .88.997h3.614a.888.888 0 0 0 .876-.74 9.86 9.86 0 0 1 8.087-8.087.888.888 0 0 0 .74-.876V4.17a.888.888 0 0 0-.997-.882 15.259 15.259 0 0 0-8.862 4.338A15.259 15.259 0 0 0 3.52 16.49Z" fill-opacity=".65"/><path d="M24.33 26.414a9.786 9.786 0 0 1-5.716 1.84 9.835 9.835 0 0 1-9.724-8.236.888.888 0 0 0-.876-.74H4.401a.888.888 0 0 0-.881.997c.943 7.595 7.432 13.322 15.093 13.322 3.413 0 6.641-1.108 9.334-3.204a.888.888 0 0 0 .083-1.328l-2.556-2.557a.888.888 0 0 0-1.144-.094Z" fill-opacity=".85"/><path d="M20.25 8.659a9.835 9.835 0 0 1 8.235 9.723c0 2.054-.636 4.03-1.84 5.716a.888.888 0 0 0 .095 1.144l2.556 2.556a.888.888 0 0 0 1.329-.082 15.066 15.066 0 0 0 3.203-9.334c0-7.661-5.727-14.15-13.322-15.094a.888.888 0 0 0-.997.882v3.613c0 .434.313.804.74.876Z" fill-opacity=".5"/><path d="M19.205 12.279H18.02a.888.888 0 0 0-.888.888V23.53h2.961V13.167a.888.888 0 0 0-.888-.888ZM21.87 23.529h2.073c.49 0 .888-.398.888-.888v-7.105a.888.888 0 0 0-.888-.889H21.87v8.882ZM15.356 17.016h-2.071a.888.888 0 0 0-.888.888v4.737c0 .49.397.888.888.888h2.07v-6.513Z"/></g></g><defs><clipPath id="a"><rect x=".671" y=".439" width="36" height="36" rx="12.632" fill="#fff"/></clipPath><clipPath id="b"><path fill="#fff" d="M3.513 3.281h30.316v30.316H3.513z"/></clipPath></defs></svg>
